packages/kaspersky-hexa-ui-icons/src/iconsSVGs/64x42/FlagTj.svg

<svg xmlns="http://www.w3.org/2000/svg" width="64" height="42" fill="none" viewBox="0 0 64 42"><g clip-path="url(#a)"><rect width="64" height="42" fill="#fff" rx="5"/><path fill="#d9101c" fill-rule="evenodd" d="M0 14h64V0H0z" clip-rule="evenodd"/><path fill="#0f7811" fill-rule="evenodd" d="M0 42h64V28H0z" clip-rule="evenodd"/><path fill="#fad14e" fill-rule="evenodd" d="M29.2001 19.5999c.7732 0 1.4-.6268 1.4-1.4s-.6268-1.4-1.4-1.4-1.4.6268-1.4 1.4.6268 1.4 1.4 1.4M32.0002 25.2l.0156-.0002h2.7843c.7732 0 1.4-.6268 1.4-1.4s-.6268-1.4-1.4-1.4h-1.3999c-.0001-1.5463-.6269-2.7998-1.4-2.7998-.7732 0-1.4 1.2535-1.4 2.7998h-1.4001c-.7732 0-1.4.6268-1.4 1.4s.6268 1.4 1.4 1.4h2.7844zm2.8001-5.6001c.7732 0 1.4-.6268 1.4-1.4s-.6268-1.4-1.4-1.4-1.4.6268-1.4 1.4.6268 1.4 1.4 1.4M41.8002 21c0 .7732-.6268 1.4-1.4 1.4s-1.4-.6268-1.4-1.4.6268-1.4 1.4-1.4 1.4.6268 1.4 1.4m-18.2 1.4c.7732 0 1.4-.6268 1.4-1.4s-.6268-1.4-1.4-1.4-1.4.6268-1.4 1.4.6268 1.4 1.4 1.4" clip-rule="evenodd"/></g><defs><clipPath id="a"><rect width="64" height="42" fill="#fff" rx="5"/></clipPath></defs></svg>

<svg width="64" height="42" viewBox="0 0 64 42" fill="none" xmlns="http://www.w3.org/2000/svg">
<g clip-path="url(#clip0_37941_2359)">
<rect width="64" height="42" rx="5" fill="white"/>
<path fill-rule="evenodd" clip-rule="evenodd" d="M0 14H64V0H0V14Z" fill="#D9101C"/>
<path fill-rule="evenodd" clip-rule="evenodd" d="M0 42H64V28H0V42Z" fill="#0F7811"/>
<path fill-rule="evenodd" clip-rule="evenodd" d="M29.2001 19.5999C29.9733 19.5999 30.6001 18.9731 30.6001 18.1999C30.6001 17.4267 29.9733 16.7999 29.2001 16.7999C28.4269 16.7999 27.8001 17.4267 27.8001 18.1999C27.8001 18.9731 28.4269 19.5999 29.2001 19.5999ZM32.0002 25.2L32.0158 25.1998H34.8001C35.5733 25.1998 36.2001 24.573 36.2001 23.7998C36.2001 23.0266 35.5733 22.3998 34.8001 22.3998H33.4002C33.4001 20.8535 32.7733 19.6 32.0002 19.6C31.227 19.6 30.6002 20.8535 30.6002 22.3998H29.2001C28.4269 22.3998 27.8001 23.0266 27.8001 23.7998C27.8001 24.573 28.4269 25.1998 29.2001 25.1998H31.9845L32.0002 25.2ZM34.8003 19.5999C35.5735 19.5999 36.2003 18.9731 36.2003 18.1999C36.2003 17.4267 35.5735 16.7999 34.8003 16.7999C34.0271 16.7999 33.4003 17.4267 33.4003 18.1999C33.4003 18.9731 34.0271 19.5999 34.8003 19.5999ZM41.8002 21C41.8002 21.7732 41.1734 22.4 40.4002 22.4C39.627 22.4 39.0002 21.7732 39.0002 21C39.0002 20.2268 39.627 19.6 40.4002 19.6C41.1734 19.6 41.8002 20.2268 41.8002 21ZM23.6002 22.4C24.3734 22.4 25.0002 21.7732 25.0002 21C25.0002 20.2268 24.3734 19.6 23.6002 19.6C22.827 19.6 22.2002 20.2268 22.2002 21C22.2002 21.7732 22.827 22.4 23.6002 22.4Z" fill="#FAD14E"/>
</g>
<defs>
<clipPath id="clip0_37941_2359">
<rect width="64" height="42" rx="5" fill="white"/>
</clipPath>
</defs>
</svg>
